src/images/logo-color.svg

<svg fill="none" height="24" viewBox="0 0 65 24" width="65" xmlns="http://www.w3.org/2000/svg" xmlns:xlink="http://www.w3.org/1999/xlink"><linearGradient id="a"><stop offset="0" stop-color="#00b5f6"/><stop offset="1" stop-color="#0067ff"/></linearGradient><linearGradient id="b" gradientUnits="userSpaceOnUse" x1="-101.197" x2="-99.512" xlink:href="#a" y1="2.61712" y2="52.3842"/><linearGradient id="c" gradientUnits="userSpaceOnUse" x1="19.8007" x2="59.7175" xlink:href="#a" y1="-3.66814" y2="32.5811"/><linearGradient id="d" gradientUnits="userSpaceOnUse" x1=".778484" x2="43.3025" xlink:href="#a" y1="15.7742" y2="38.424"/><linearGradient id="e" gradientUnits="userSpaceOnUse" x1="-13.7995" x2="26.4804" xlink:href="#a" y1="16.1936" y2="52.1526"/><linearGradient id="f" gradientUnits="userSpaceOnUse" x1="-80.4455" x2="-77.6668" xlink:href="#a" y1="4.06725" y2="54.3461"/><linearGradient id="g" gradientUnits="userSpaceOnUse" x1="-75.4045" x2="-72.6258" xlink:href="#a" y1="1.0698" y2="51.3487"/><linearGradient id="h" gradientUnits="userSpaceOnUse" x1="3.00129" x2="42.5455" xlink:href="#a" y1="5.42379" y2="42.9386"/><linearGradient id="i" gradientUnits="userSpaceOnUse" x1="11.4997" x2="51.0439" xlink:href="#a" y1=".516841" y2="38.0316"/><path d="m14.1251 15.7415c0-.7114-.5721-1.2925-1.2826-1.2925h-8.0694c-.70589 0-1.2826.5765-1.2826 1.2925 0 .7113.5721 1.2925 1.2826 1.2925h8.0694c.7059-.0046 1.2826-.5812 1.2826-1.2925z" fill="url(#b)"/><path d="m62.8795 18.9763h-4.3854c-.1663 0-.2634-.183-.1802-.3237l5.1109-8.3134c.037-.0563.0601-.1173.0878-.1783 0-.0047.0046-.0094.0046-.0141.0185-.0469.0324-.0938.0416-.1407.0093-.03753.0231-.07506.0278-.11259.0046-.01408.0046-.03284.0046-.04692.0092-.0563.0185-.1126.0185-.17359 0-.66619-.5361-1.21041-1.1923-1.21041h-6.3078c-.6238 0-1.1783.46446-1.2384 1.09313-.0693.72248.4898 1.32768 1.1876 1.32768h3.8355c.1664 0 .2634.183.1802.3237l-5.0785 8.2571c-.0324.0563-.0555.1126-.0832.1689-.0832.1642-.134.3472-.134.5442 0 .6662.5314 1.2105 1.1922 1.2105h6.9039c.6562 0 1.1923-.5443 1.1923-1.2105.0046-.6568-.5315-1.201-1.1877-1.201z" fill="url(#c)"/><path d="m31.127 8.36119c-.0047 0-.0093 0-.0093-.00471-.014 0-.0233-.00471-.0372-.00942-.0093 0-.0233 0-.0326-.00471-.0092 0-.0139 0-.0232 0-.2835-.02356-.9389-.02356-1.2828.01884v.00471c-.646.07067-1.3525.29208-1.8452.66897-.2138.16488-.409.3439-.5856.53705-.0186-.66425-.5484-1.1966-1.2084-1.1966-.6693 0-1.2085.55119-1.2085 1.22487v10.68931c0 .1696.0326.3298.0976.4805.1859.4429.6182.7538 1.1202.7538.6692 0 1.213-.5512 1.213-1.2296v-.0754-1.1494-4.6074c0-1.0836.2882-1.9787.8599-2.657.4694-.556.99-.8763 1.5802-.9705.2929-.0377.5903-.0283.5903-.0283h.5949c.6693 0 1.2131-.5512 1.2131-1.22957-.0046-.62185-.4508-1.12593-1.0364-1.21544z" fill="url(#d)"/><path d="m19.431 10.4407c.5941-.83382.9469-1.85608.9469-2.96784 0-2.80768-2.2418-5.08303-5.0081-5.08303h-.687v-.55118c0-.70192-.5616-1.26722-1.2485-1.26722-.6916 0-1.2486.57002-1.2486 1.26722v.55118h-1.2717v.00471h-.803c-.66838 0-1.20679.55117-1.20679 1.22482 0 .67837.54305 1.22483 1.20679 1.22483h.803v.00471h4.4372c1.3878 0 2.511 1.14003 2.511 2.54858v.00471c0 1.37087-1.0675 2.51561-2.4089 2.54387-.246.00471-.9886 0-.9886 0-.0047 0-.014 0-.0186 0h-.0093c-.738.01885-1.3274.66424-1.2485 1.43684.0696.6736.6637 1.1683 1.3321 1.1683h2.5342c.2599 0 .5245.0188.7751.0848 1.36.3627 2.3672 1.6158 2.3672 3.1139 0 1.776-1.4203 3.2175-3.1701 3.2175h-7.64916-1.43885c-.67765 0-1.28104.504-1.34602 1.1871-.07427.782.53376 1.4415 1.29032 1.4415h4.30261v.5653c0 .702.5616 1.2673 1.2486 1.2673.6915 0 1.2485-.57 1.2485-1.2673v-.5653h1.0861.0047 1.3646c3.1701 0 5.7368-2.6098 5.7368-5.8226.0046-2.3837-1.4157-4.4376-3.444-5.3327z" fill="url(#e)"/><path d="m9.27894 11.2517c0-.7113-.57528-1.29251-1.28973-1.29251h-5.76666c-.70981 0-1.289727.57651-1.289727 1.29251 0 .7114.575277 1.2925 1.289727 1.2925h5.76666c.71445 0 1.28973-.5811 1.28973-1.2925z" fill="url(#f)"/><path d="m6.79946 8.73468h5.76664c.7098 0 1.2897-.57651 1.2897-1.29251 0-.71135-.5752-1.29252-1.2897-1.29252h-5.76664c-.70982 0-1.28973.57652-1.28973 1.29252 0 .71135.57527 1.29251 1.28973 1.29251z" fill="url(#g)"/><g clip-rule="evenodd" fill-rule="evenodd"><path d="m41.0979 9.76885c.8247.83155 1.2953 1.85105 1.4071 3.04445v.0093c.0559.545-.0047 1.5363-.0047 1.5363 0 .8034-.6476 1.4565-1.4444 1.4565h-5.7169c-.1165 0-.2097.0939-.2097.2114v.3523c0 .9115.2842 1.6209.876 2.1612.5917.5403 1.3698.8128 2.3156.8128.2516 0 .5219-.0282.7688-.0752.4426-.1034.9505-.3336 1.3046-.6061.021-.0141.0408-.0282.0606-.0422.0198-.0141.0396-.0282.0606-.0423.0046-.0024.0093-.0059.0139-.0094.0047-.0036.0094-.0071.014-.0094.0419-.0282.0885-.0564.1305-.0799.0023-.0023.0058-.0035.0093-.0047s.007-.0023.0093-.0047l.1258-.0564c.0093 0 .0186-.0047.028-.0094.0466-.0188.0932-.0328.1444-.0422.0047 0 .0105-.0012.0163-.0024s.0117-.0023.0163-.0023c.0466-.0094.0979-.0141.1491-.0141h.014.0047c.4892 0 .9039.3194 1.053.7658 0 .0094.0046.0188.0093.0281.0046.0235.0093.0423.014.0611.0093.0235.0139.0423.0186.0658.014.0611.0186.1268.0186.1879v.0188.0235c0 .0423-.0046.0893-.0093.1316-.0046.0094-.0046.0141-.0046.0234-.0094.0517-.0233.1034-.0373.1504-.0024.007-.0047.0129-.007.0188s-.0047.0117-.007.0188c-.0093.0376-.0233.0751-.0419.108-.0014.0029-.0033.0062-.0053.0097-.0046.0083-.0101.0181-.0134.0279-.0233.047-.0512.0893-.0792.1316-.1817.2912-.5172.5731-1.0343.8738-.7549.4416-1.7007.6625-2.8096.6625-1.6214 0-2.9633-.498-3.993-1.4753-1.0344-.9772-1.5609-2.2833-1.5609-3.8712v-2.7719c0-1.4095.4939-2.6404 1.4677-3.66459.9738-1.02889 2.1619-1.55039 3.5317-1.55039 1.3 0 2.4462.48391 3.3967 1.44233zm-1.3698 3.96525c.2562 0 .4659-.2067.4659-.4651v-.1645c0-.747-.2423-1.2356-.7362-1.7993-.4892-.5544-1.0716-.8222-1.7798-.8222-.6989 0-1.2813.249-1.7892.7658s-.7548 1.1369-.7548 1.8933v.1175c0 .2584.2096.4698.4659.4698z" fill="url(#h)"/><path d="m52.4057 9.76885c.8247.83155 1.2953 1.85105 1.4071 3.04445v.0093c.0559.545-.0047 1.5363-.0047 1.5363 0 .8034-.6476 1.4565-1.4443 1.4565h-5.717c-.1165 0-.2097.0939-.2097.2114v.3523c0 .9115.2842 1.6209.876 2.1612.5917.5403 1.3698.8128 2.3156.8128.2516 0 .5219-.0282.7688-.0752.4427-.1034.9505-.3336 1.3046-.6061.021-.0141.0408-.0282.0606-.0422.0198-.0141.0396-.0282.0606-.0423.0046-.0024.0093-.0059.014-.0094.0046-.0035.0093-.0071.0139-.0094.042-.0282.0886-.0564.1305-.0799.0023-.0023.0058-.0035.0093-.0047s.007-.0023.0093-.0047l.1258-.0564c.0094 0 .0187-.0047.028-.0094.0466-.0188.0932-.0328.1444-.0422.0047 0 .0105-.0012.0163-.0024.0059-.0012.0117-.0023.0163-.0023.0466-.0094.0979-.0141.1491-.0141h.014.0047c.4892 0 .9039.3194 1.053.7658 0 .0094.0046.0188.0093.0281.0047.0235.0093.0423.014.0611.0093.0235.014.0423.0186.0658.014.0611.0187.1268.0187.1879v.0188.0235c0 .0423-.0047.0893-.0094.1316-.0046.0094-.0046.0141-.0046.0234-.0093.0517-.0233.1034-.0373.1504-.0023.007-.0047.0129-.007.0188s-.0046.0117-.007.0188c-.0093.0376-.0233.0751-.0419.108-.0014.0029-.0033.0062-.0053.0097-.0046.0083-.0101.0181-.0134.0279-.0232.047-.0512.0893-.0792.1316-.1817.2912-.5171.5731-1.0343.8738-.7548.4416-1.7007.6625-2.8096.6625-1.6214 0-2.9633-.498-3.993-1.4753-1.0344-.9772-1.5609-2.2833-1.5609-3.8712v-2.7719c0-1.4095.4939-2.6404 1.4677-3.66459.9738-1.02889 2.1619-1.55039 3.5318-1.55039 1.2999 0 2.4461.48391 3.3966 1.44233zm-1.3698 3.96525c.2562 0 .4659-.2067.4659-.4651v-.1645c0-.747-.2423-1.2356-.7362-1.7993-.4892-.5544-1.0716-.8222-1.7798-.8222-.6989 0-1.2813.249-1.7892.7658s-.7548 1.1369-.7548 1.8933v.1175c0 .2584.2097.4698.4659.4698z" fill="url(#i)"/></g></svg>

<svg width="65" height="24" viewBox="0 0 65 24" fill="none" xmlns="http://www.w3.org/2000/svg">
<defs>
<linearGradient id="paint0_linear" x1="-101.197" y1="2.61712" x2="-99.512" y2="52.3842" gradientUnits="userSpaceOnUse">
<stop stop-color="#00B5F6"/>
<stop offset="1" stop-color="#0067FF"/>
</linearGradient>
<linearGradient id="paint1_linear" x1="19.8007" y1="-3.66814" x2="59.7175" y2="32.5811" gradientUnits="userSpaceOnUse">
<stop stop-color="#00B5F6"/>
<stop offset="1" stop-color="#0067FF"/>
</linearGradient>
<linearGradient id="paint2_linear" x1="0.778484" y1="15.7742" x2="43.3025" y2="38.424" gradientUnits="userSpaceOnUse">
<stop stop-color="#00B5F6"/>
<stop offset="1" stop-color="#0067FF"/>
</linearGradient>
<linearGradient id="paint3_linear" x1="-13.7995" y1="16.1936" x2="26.4804" y2="52.1526" gradientUnits="userSpaceOnUse">
<stop stop-color="#00B5F6"/>
<stop offset="1" stop-color="#0067FF"/>
</linearGradient>
<linearGradient id="paint4_linear" x1="-80.4455" y1="4.06725" x2="-77.6668" y2="54.3461" gradientUnits="userSpaceOnUse">
<stop stop-color="#00B5F6"/>
<stop offset="1" stop-color="#0067FF"/>
</linearGradient>
<linearGradient id="paint5_linear" x1="-75.4045" y1="1.0698" x2="-72.6258" y2="51.3487" gradientUnits="userSpaceOnUse">
<stop stop-color="#00B5F6"/>
<stop offset="1" stop-color="#0067FF"/>
</linearGradient>
<linearGradient id="paint6_linear" x1="3.00129" y1="5.42379" x2="42.5455" y2="42.9386" gradientUnits="userSpaceOnUse">
<stop stop-color="#00B5F6"/>
<stop offset="1" stop-color="#0067FF"/>
</linearGradient>
<linearGradient id="paint7_linear" x1="11.4997" y1="0.516841" x2="51.0439" y2="38.0316" gradientUnits="userSpaceOnUse">
<stop stop-color="#00B5F6"/>
<stop offset="1" stop-color="#0067FF"/>
</linearGradient>
</defs>
<path d="M14.1251 15.7415C14.1251 15.0301 13.553 14.449 12.8425 14.449H4.7731C4.06721 14.449 3.4905 15.0255 3.4905 15.7415C3.4905 16.4528 4.0626 17.034 4.7731 17.034H12.8425C13.5484 17.0294 14.1251 16.4528 14.1251 15.7415Z" fill="url(#paint0_linear)"/>
<path d="M62.8795 18.9763H58.4941C58.3278 18.9763 58.2307 18.7933 58.3139 18.6526L63.4248 10.3392C63.4618 10.2829 63.4849 10.2219 63.5126 10.1609C63.5126 10.1562 63.5172 10.1515 63.5172 10.1468C63.5357 10.0999 63.5496 10.053 63.5588 10.0061C63.5681 9.96857 63.5819 9.93104 63.5866 9.89351C63.5912 9.87943 63.5912 9.86067 63.5912 9.84659C63.6004 9.79029 63.6097 9.73399 63.6097 9.673C63.6097 9.00681 63.0736 8.46259 62.4174 8.46259H56.1096C55.4858 8.46259 54.9313 8.92705 54.8712 9.55572C54.8019 10.2782 55.361 10.8834 56.0588 10.8834H59.8943C60.0607 10.8834 60.1577 11.0664 60.0745 11.2071L54.996 19.4642C54.9636 19.5205 54.9405 19.5768 54.9128 19.6331C54.8296 19.7973 54.7788 19.9803 54.7788 20.1773C54.7788 20.8435 55.3102 21.3878 55.971 21.3878H62.8749C63.5311 21.3878 64.0672 20.8435 64.0672 20.1773C64.0718 19.5205 63.5357 18.9763 62.8795 18.9763Z" fill="url(#paint1_linear)"/>
<path d="M31.127 8.36119C31.1223 8.36119 31.1177 8.36119 31.1177 8.35648C31.1037 8.35648 31.0944 8.35177 31.0805 8.34706C31.0712 8.34706 31.0572 8.34706 31.0479 8.34235C31.0387 8.34235 31.034 8.34235 31.0247 8.34235C30.7412 8.31879 30.0858 8.31879 29.7419 8.36119V8.3659C29.0959 8.43657 28.3894 8.65798 27.8967 9.03487C27.6829 9.19975 27.4877 9.37877 27.3111 9.57192C27.2925 8.90767 26.7627 8.37532 26.1027 8.37532C25.4334 8.37532 24.8942 8.92651 24.8942 9.60019V20.2895C24.8942 20.4591 24.9268 20.6193 24.9918 20.77C25.1777 21.2129 25.61 21.5238 26.112 21.5238C26.7812 21.5238 27.325 20.9726 27.325 20.2942V20.2188V19.0694V14.462C27.325 13.3784 27.6132 12.4833 28.1849 11.805C28.6543 11.249 29.1749 10.9287 29.7651 10.8345C30.058 10.7968 30.3554 10.8062 30.3554 10.8062H30.9503C31.6196 10.8062 32.1634 10.255 32.1634 9.57663C32.1588 8.95478 31.7126 8.4507 31.127 8.36119Z" fill="url(#paint2_linear)"/>
<path d="M19.431 10.4407C20.0251 9.60688 20.3779 8.58462 20.3779 7.47286C20.3779 4.66518 18.1361 2.38983 15.3698 2.38983H14.6828V1.83865C14.6828 1.13673 14.1212 0.57143 13.4343 0.57143C12.7427 0.57143 12.1857 1.14145 12.1857 1.83865V2.38983H10.914V2.39454H10.111C9.44262 2.39454 8.90421 2.94571 8.90421 3.61936C8.90421 4.29773 9.44726 4.84419 10.111 4.84419H10.914V4.8489H15.3512C16.739 4.8489 17.8622 5.98893 17.8622 7.39748V7.40219C17.8622 8.77306 16.7947 9.9178 15.4533 9.94606C15.2073 9.95077 14.4647 9.94606 14.4647 9.94606C14.46 9.94606 14.4507 9.94606 14.4461 9.94606H14.4368C13.6988 9.96491 13.1094 10.6103 13.1883 11.3829C13.2579 12.0565 13.852 12.5512 14.5204 12.5512H17.0546C17.3145 12.5512 17.5791 12.57 17.8297 12.636C19.1897 12.9987 20.1969 14.2518 20.1969 15.7499C20.1969 17.5259 18.7766 18.9674 17.0268 18.9674H9.37764H7.93879C7.26114 18.9674 6.65775 19.4714 6.59277 20.1545C6.5185 20.9365 7.12653 21.596 7.88309 21.596H12.1857V22.1613C12.1857 22.8633 12.7473 23.4286 13.4343 23.4286C14.1258 23.4286 14.6828 22.8586 14.6828 22.1613V21.596H15.7689C15.7689 21.596 15.7689 21.596 15.7736 21.596H17.1382C20.3083 21.596 22.875 18.9862 22.875 15.7734C22.8796 13.3897 21.4593 11.3358 19.431 10.4407Z" fill="url(#paint3_linear)"/>
<path d="M9.27894 11.2517C9.27894 10.5404 8.70366 9.95919 7.98921 9.95919H2.22255C1.51274 9.95919 0.932823 10.5357 0.932823 11.2517C0.932823 11.9631 1.5081 12.5442 2.22255 12.5442H7.98921C8.70366 12.5442 9.27894 11.9631 9.27894 11.2517Z" fill="url(#paint4_linear)"/>
<path d="M6.79946 8.73468H12.5661C13.2759 8.73468 13.8558 8.15817 13.8558 7.44217C13.8558 6.73082 13.2806 6.14965 12.5661 6.14965H6.79946C6.08964 6.14965 5.50973 6.72617 5.50973 7.44217C5.50973 8.15352 6.085 8.73468 6.79946 8.73468Z" fill="url(#paint5_linear)"/>
<path fill-rule="evenodd" clip-rule="evenodd" d="M41.0979 9.76885C41.9226 10.6004 42.3932 11.6199 42.505 12.8133V12.8226C42.5609 13.3676 42.5003 14.3589 42.5003 14.3589C42.5003 15.1623 41.8527 15.8154 41.0559 15.8154H35.339C35.2225 15.8154 35.1293 15.9093 35.1293 16.0268V16.3791C35.1293 17.2906 35.4135 18 36.0053 18.5403C36.597 19.0806 37.3751 19.3531 38.3209 19.3531C38.5725 19.3531 38.8428 19.3249 39.0897 19.2779C39.5323 19.1745 40.0402 18.9443 40.3943 18.6718C40.4153 18.6577 40.4351 18.6436 40.4549 18.6296C40.4747 18.6155 40.4945 18.6014 40.5155 18.5873C40.5201 18.5849 40.5248 18.5814 40.5294 18.5779C40.5341 18.5743 40.5388 18.5708 40.5434 18.5685C40.5853 18.5403 40.6319 18.5121 40.6739 18.4886C40.6762 18.4863 40.6797 18.4851 40.6832 18.4839C40.6867 18.4827 40.6902 18.4816 40.6925 18.4792L40.8183 18.4228C40.8276 18.4228 40.8369 18.4181 40.8463 18.4134L40.8463 18.4134C40.8929 18.3946 40.9395 18.3806 40.9907 18.3712C40.9954 18.3712 41.0012 18.37 41.007 18.3688C41.0128 18.3676 41.0187 18.3665 41.0233 18.3665C41.0699 18.3571 41.1212 18.3524 41.1724 18.3524H41.1864H41.1911C41.6803 18.3524 42.095 18.6718 42.2441 19.1182C42.2441 19.1276 42.2487 19.137 42.2534 19.1463C42.258 19.1698 42.2627 19.1886 42.2674 19.2074C42.2767 19.2309 42.2813 19.2497 42.286 19.2732C42.3 19.3343 42.3046 19.4 42.3046 19.4611V19.4799V19.5034C42.3046 19.5457 42.3 19.5927 42.2953 19.635C42.2907 19.6444 42.2907 19.6491 42.2907 19.6584C42.2813 19.7101 42.2674 19.7618 42.2534 19.8088C42.251 19.8158 42.2487 19.8217 42.2464 19.8276C42.2441 19.8335 42.2417 19.8393 42.2394 19.8464C42.2301 19.884 42.2161 19.9215 42.1975 19.9544C42.1961 19.9573 42.1942 19.9606 42.1922 19.9641C42.1876 19.9724 42.1821 19.9822 42.1788 19.992C42.1555 20.039 42.1276 20.0813 42.0996 20.1236C41.9179 20.4148 41.5824 20.6967 41.0653 20.9974C40.3104 21.439 39.3646 21.6599 38.2557 21.6599C36.6343 21.6599 35.2924 21.1619 34.2627 20.1846C33.2283 19.2074 32.7018 17.9013 32.7018 16.3134V13.5415C32.7018 12.132 33.1957 10.9011 34.1695 9.87691C35.1433 8.84802 36.3314 8.32652 37.7012 8.32652C39.0012 8.32652 40.1474 8.81043 41.0979 9.76885ZM39.7281 13.7341C39.9843 13.7341 40.194 13.5274 40.194 13.269V13.1045C40.194 12.3575 39.9517 11.8689 39.4578 11.3052C38.9686 10.7508 38.3862 10.483 37.678 10.483C36.9791 10.483 36.3967 10.732 35.8888 11.2488C35.3809 11.7656 35.134 12.3857 35.134 13.1421V13.2596C35.134 13.518 35.3436 13.7294 35.5999 13.7294L39.7281 13.7341Z" fill="url(#paint6_linear)"/>
<path fill-rule="evenodd" clip-rule="evenodd" d="M52.4057 9.76885C53.2304 10.6004 53.701 11.6199 53.8128 12.8133V12.8226C53.8687 13.3676 53.8081 14.3589 53.8081 14.3589C53.8081 15.1623 53.1605 15.8154 52.3638 15.8154H46.6468C46.5303 15.8154 46.4371 15.9093 46.4371 16.0268V16.3791C46.4371 17.2906 46.7213 18 47.3131 18.5403C47.9048 19.0806 48.6829 19.3531 49.6287 19.3531C49.8803 19.3531 50.1506 19.3249 50.3975 19.2779C50.8402 19.1745 51.348 18.9443 51.7021 18.6718C51.7231 18.6577 51.7429 18.6436 51.7627 18.6296C51.7825 18.6155 51.8023 18.6014 51.8233 18.5873C51.8279 18.5849 51.8326 18.5814 51.8373 18.5779C51.8419 18.5744 51.8466 18.5708 51.8512 18.5685C51.8932 18.5403 51.9398 18.5121 51.9817 18.4886C51.984 18.4863 51.9875 18.4851 51.991 18.4839C51.9945 18.4827 51.998 18.4816 52.0003 18.4792L52.1261 18.4228C52.1355 18.4228 52.1448 18.4181 52.1541 18.4134C52.2007 18.3946 52.2473 18.3806 52.2985 18.3712C52.3032 18.3712 52.309 18.37 52.3148 18.3688C52.3207 18.3676 52.3265 18.3665 52.3311 18.3665C52.3777 18.3571 52.429 18.3524 52.4802 18.3524H52.4942H52.4989C52.9881 18.3524 53.4028 18.6718 53.5519 19.1182C53.5519 19.1276 53.5565 19.137 53.5612 19.1463C53.5659 19.1698 53.5705 19.1886 53.5752 19.2074C53.5845 19.2309 53.5892 19.2497 53.5938 19.2732C53.6078 19.3343 53.6125 19.4 53.6125 19.4611V19.4799V19.5034C53.6125 19.5457 53.6078 19.5927 53.6031 19.635C53.5985 19.6444 53.5985 19.6491 53.5985 19.6584C53.5892 19.7101 53.5752 19.7618 53.5612 19.8088C53.5589 19.8158 53.5565 19.8217 53.5542 19.8276C53.5519 19.8335 53.5496 19.8393 53.5472 19.8464C53.5379 19.884 53.5239 19.9215 53.5053 19.9544C53.5039 19.9573 53.502 19.9606 53.5 19.9641C53.4954 19.9724 53.4899 19.9822 53.4866 19.992C53.4634 20.039 53.4354 20.0813 53.4074 20.1236C53.2257 20.4148 52.8903 20.6967 52.3731 20.9974C51.6183 21.439 50.6724 21.6599 49.5635 21.6599C47.9421 21.6599 46.6002 21.1619 45.5705 20.1846C44.5361 19.2074 44.0096 17.9013 44.0096 16.3134V13.5415C44.0096 12.132 44.5035 10.9011 45.4773 9.87691C46.4511 8.84802 47.6392 8.32652 49.0091 8.32652C50.309 8.32652 51.4552 8.81043 52.4057 9.76885ZM51.0359 13.7341C51.2921 13.7341 51.5018 13.5274 51.5018 13.269V13.1045C51.5018 12.3575 51.2595 11.8689 50.7656 11.3052C50.2764 10.7508 49.694 10.483 48.9858 10.483C48.2869 10.483 47.7045 10.732 47.1966 11.2488C46.6887 11.7656 46.4418 12.3857 46.4418 13.1421V13.2596C46.4418 13.518 46.6515 13.7294 46.9077 13.7294L51.0359 13.7341Z" fill="url(#paint7_linear)"/>
</svg>
